communes/326.svg

<?xml version="1.0" encoding="UTF-8" standalone="no"?>
<svg
   xmlns:i="http://ns.adobe.com/AdobeIllustrator/10.0/"
   xmlns:dc="http://purl.org/dc/elements/1.1/"
   xmlns:cc="http://web.resource.org/cc/"
   xmlns:rdf="http://www.w3.org/1999/02/22-rdf-syntax-ns#"
   xmlns:svg="http://www.w3.org/2000/svg"
   xmlns="http://www.w3.org/2000/svg"
   xmlns:xlink="http://www.w3.org/1999/xlink"
   xmlns:sodipodi="http://sodipodi.sourceforge.net/DTD/sodipodi-0.dtd"
   xmlns:inkscape="http://www.inkscape.org/namespaces/inkscape"
   height="763"
   width="603"
   version="1.0"
   id="svg20"
   sodipodi:version="0.32"
   inkscape:version="0.44.1"
   sodipodi:docname="Gondiswil-coat of arms.svg"
   sodipodi:docbase="F:\Mis Documentos\Mis imágenes\Encyclopédie\Escudos de Suiza">
  <metadata
     id="metadata31">
    <rdf:RDF>
      <cc:Work
         rdf:about="">
        <dc:format>image/svg+xml</dc:format>
        <dc:type
           rdf:resource="http://purl.org/dc/dcmitype/StillImage" />
        <dc:date>07-AUG-2006</dc:date>
        <dc:creator>
          <cc:Agent>
            <dc:title>Jérôme BLUM (wagner51)</dc:title>
          </cc:Agent>
        </dc:creator>
        <cc:license
           rdf:resource="http://creativecommons.org/licenses/GPL/2.0/" />
        <dc:coverage />
        <dc:description>Gabarit pour le Projet:Blasons de WIkipédia</dc:description>
        <dc:subject>
          <rdf:Bag>
            <rdf:li>blason suisse modèle gabarit projet blasons</rdf:li>
          </rdf:Bag>
        </dc:subject>
        <dc:language>fr</dc:language>
        <dc:title>Gabrit d'un blason suisse</dc:title>
      </cc:Work>
      <cc:License
         rdf:about="http://creativecommons.org/licenses/GPL/2.0/">
        <cc:permits
           rdf:resource="http://web.resource.org/cc/Reproduction" />
        <cc:permits
           rdf:resource="http://web.resource.org/cc/Distribution" />
        <cc:requires
           rdf:resource="http://web.resource.org/cc/Notice" />
        <cc:permits
           rdf:resource="http://web.resource.org/cc/DerivativeWorks" />
        <cc:requires
           rdf:resource="http://web.resource.org/cc/ShareAlike" />
        <cc:requires
           rdf:resource="http://web.resource.org/cc/SourceCode" />
      </cc:License>
    </rdf:RDF>
  </metadata>
  <defs
     id="defs29">
    <linearGradient
       id="linearGradient2893">
      <stop
         style="stop-color:#ffffff;stop-opacity:0.3137255;"
         offset="0"
         id="stop2895" />
      <stop
         id="stop2897"
         offset="0.19"
         style="stop-color:#ffffff;stop-opacity:0.25098041;" />
      <stop
         style="stop-color:#6b6b6b;stop-opacity:0.1254902;"
         offset="0.60000002"
         id="stop2901" />
      <stop
         style="stop-color:#000000;stop-opacity:0.1254902;"
         offset="1"
         id="stop2899" />
    </linearGradient>
    <linearGradient
       id="linearGradient2955">
      <stop
         style="stop-color:white;stop-opacity:0;"
         offset="0"
         id="stop2965" />
      <stop
         style="stop-color:black;stop-opacity:0.64583331;"
         offset="1"
         id="stop2959" />
    </linearGradient>
    <radialGradient
       inkscape:collect="always"
       xlink:href="#linearGradient2893"
       id="radialGradient3236"
       gradientUnits="userSpaceOnUse"
       gradientTransform="matrix(1.215027,1.531577e-24,1.464684e-23,1.266667,-839.1924,-490.4894)"
       cx="858.04236"
       cy="579.93323"
       fx="858.04236"
       fy="579.93323"
       r="300" />
  </defs>
  <sodipodi:namedview
     inkscape:window-height="682"
     inkscape:window-width="1024"
     inkscape:pageshadow="2"
     inkscape:pageopacity="0.0"
     guidetolerance="10.0"
     gridtolerance="10.0"
     objecttolerance="10.0"
     borderopacity="1.0"
     bordercolor="#666666"
     pagecolor="#ffffff"
     id="base"
     inkscape:zoom="0.59925709"
     inkscape:cx="500.15338"
     inkscape:cy="359.8809"
     inkscape:window-x="-4"
     inkscape:window-y="-4"
     inkscape:current-layer="layer2"
     showgrid="true"
     showguides="true"
     inkscape:guide-bbox="true" />
  <desc
     id="desc22">Coat of Arms of Canton of Freiburg (Fribourg)</desc>
  <g
     inkscape:groupmode="layer"
     id="layer1"
     inkscape:label="Fond écu">
    <path
       id="path1899"
       d="M 1.5,1.49998 L 1.5,460.3679 C 1.5,626.6785 135.81456,761.5 301.49999,761.5 C 467.18543,761.5 601.5,626.6785 601.5,460.3679 L 601.5,1.49998 L 1.5,1.49998 z "
       style="fill:#2b5df2;fill-opacity:1" />
  </g>
  <g
     inkscape:groupmode="layer"
     id="layer2"
     inkscape:label="Meubles"
     sodipodi:insensitive="true">
    <g
       id="g1902"
       transform="translate(4.707806,0)">
      <path
         sodipodi:nodetypes="ccscscscscscsccc"
         id="path11755"
         d="M 334.91922,545.00049 C 295.7673,499.77202 324.77286,405.5887 299.64257,334.61733 C 329.34446,392.49032 372.92332,476.90411 440.43462,461.79319 C 505.57832,447.21224 516.58502,434.50175 509.31052,409.23114 C 545.31392,381.75469 508.45952,350.73644 482.83282,323.88816 C 443.48102,282.66054 357.81485,301.57376 299.64257,334.61733 C 385.12882,245.49969 381.71682,205.45798 359.37299,173.55047 C 334.35944,137.83056 321.95028,103.66007 299.64257,130.44242 C 276.95826,103.04818 267.10471,127.97463 244.62572,162.64603 C 204.06187,225.21147 215.47739,264.89382 299.64257,334.61733 C 219.82726,305.35929 165.73059,273.64149 108.33924,333.92953 C 67.245482,377.09734 57.874372,406.77227 83.538892,416.77289 C 75.511332,447.81437 104.33978,461.94959 178.92724,463.27048 C 233.54272,464.22564 279.74961,391.34661 299.64257,334.61733 C 270.63306,401.17866 296.1603,500.20461 254.93878,545.00049 L 334.91922,545.00049 z "
         style="fill:#5ab532;fill-opacity:1;fill-rule:evenodd;stroke:black;stroke-width:3.99902153px;stroke-linecap:butt;stroke-linejoin:miter;stroke-opacity:1" />
      <path
         sodipodi:nodetypes="ccccccc"
         id="path12642"
         d="M 299.64257,131.54841 L 301.0486,336.76378 L 508.36782,407.26407 L 302.19019,340.2505 L 86.038472,416.69125 L 297.05424,337.17215 L 299.64257,131.54841 z "
         style="fill:black;fill-opacity:1;fill-rule:evenodd;stroke:black;stroke-width:3.99902153px;stroke-linecap:butt;stroke-linejoin:miter;stroke-opacity:1" />
    </g>
    <path
       sodipodi:type="star"
       style="fill:white;fill-opacity:1;fill-rule:nonzero;stroke:black;stroke-width:1;stroke-linejoin:miter;stroke-miterlimit:4;stroke-dasharray:none;stroke-opacity:1"
       id="path14416"
       sodipodi:sides="5"
       sodipodi:cx="667.52441"
       sodipodi:cy="603.41913"
       sodipodi:r1="42.363834"
       sodipodi:r2="16.945534"
       sodipodi:arg1="-0.31983851"
       sodipodi:arg2="0.30848002"
       inkscape:flatsided="false"
       inkscape:rounded="0"
       inkscape:randomized="0"
       d="M 707.73982,590.09938 L 683.67005,608.56397 L 692.61949,637.55022 L 667.62065,620.36439 L 642.81862,637.83305 L 651.43825,608.74703 L 627.16032,590.55701 L 657.48638,589.76669 L 667.28382,561.05598 L 677.40673,589.65356 L 707.73982,590.09938 z "
       transform="matrix(3.154388,5.481954e-2,-5.481954e-2,3.154388,-1611.714,-1790.511)" />
    <path
       transform="matrix(3.154388,5.481954e-2,-5.481954e-2,3.154388,-1934.355,-1790.511)"
       d="M 707.73982,590.09938 L 683.67005,608.56397 L 692.61949,637.55022 L 667.62065,620.36439 L 642.81862,637.83305 L 651.43825,608.74703 L 627.16032,590.55701 L 657.48638,589.76669 L 667.28382,561.05598 L 677.40673,589.65356 L 707.73982,590.09938 z "
       inkscape:randomized="0"
       inkscape:rounded="0"
       inkscape:flatsided="false"
       sodipodi:arg2="0.30848002"
       sodipodi:arg1="-0.31983851"
       sodipodi:r2="16.945534"
       sodipodi:r1="42.363834"
       sodipodi:cy="603.41913"
       sodipodi:cx="667.52441"
       sodipodi:sides="5"
       id="path16214"
       style="fill:white;fill-opacity:1;fill-rule:nonzero;stroke:black;stroke-width:1;stroke-linejoin:miter;stroke-miterlimit:4;stroke-dasharray:none;stroke-opacity:1"
       sodipodi:type="star" />
    <g
       id="g16247">
      <path
         sodipodi:nodetypes="csssccsssscccsc"
         style="fill:#5ab532;fill-opacity:1;stroke:black;stroke-width:3;stroke-miterlimit:4;stroke-dasharray:none;stroke-opacity:1"
         d="M 298.93775,533.74703 C 298.06728,533.73969 297.19908,533.76167 296.344,533.77828 C 243.3295,534.80766 209.29247,568.2151 199.62525,591.24703 C 199.62524,591.24705 122.36273,529.60535 59.219,596.24703 C 53.203086,602.59618 48.335319,609.10488 44.469,615.74703 C 96.411163,702.15897 190.36015,760.2396 297.93775,761.49703 C 298.91721,761.5009 299.89299,761.49703 300.87525,761.49703 C 302.70205,761.49702 304.51913,761.48274 306.344,761.46578 C 307.30827,761.45682 308.28685,761.44822 309.25025,761.43453 C 309.27114,761.434 309.29187,761.43507 309.31275,761.43453 C 414.69516,758.73281 506.55929,701.49475 557.93775,616.77828 C 553.98737,609.78295 548.92315,602.9268 542.594,596.24703 C 479.45451,529.60527 402.1565,591.24703 402.1565,591.24703 C 387.52217,566.95423 357.99757,534.99365 301.56275,533.80953 C 300.68096,533.79102 299.80822,533.75437 298.93775,533.74703 z "
         id="path4760" />
      <path
         id="path2003"
         d="M 297.79655,761.5 C 256.49555,752.20993 175.26364,672.56858 200.76319,588.72686"
         i:knockout="Off"
         style="fill:none;fill-opacity:1;stroke:black;stroke-width:3;stroke-linecap:round;stroke-linejoin:round;stroke-miterlimit:4;stroke-dasharray:none"
         sodipodi:nodetypes="cs" />
      <path
         sodipodi:nodetypes="cs"
         style="fill:none;fill-opacity:1;stroke:black;stroke-width:3;stroke-linecap:round;stroke-linejoin:round;stroke-miterlimit:4;stroke-dasharray:none"
         i:knockout="Off"
         d="M 303.90699,761.5 C 345.20799,752.20993 426.4399,672.56858 400.94035,588.72686"
         id="path17264" />
    </g>
  </g>
  <g
     inkscape:groupmode="layer"
     id="layer3"
     inkscape:label="Reflet final"
     style="display:inline"
     sodipodi:insensitive="true">
    <path
       style="fill:url(#radialGradient3236);fill-opacity:1"
       d="M 1.5,1.5 L 1.5,460.3679 C 1.5,626.67854 135.81454,761.5 301.49993,761.5 C 467.1854,761.5 601.5,626.67854 601.5,460.3679 L 601.5,1.5 L 1.5,1.5 z "
       id="path2346" />
  </g>
  <g
     inkscape:groupmode="layer"
     id="layer4"
     inkscape:label="Contour final"
     style="display:inline"
     sodipodi:insensitive="true">
    <path
       style="fill:none;fill-opacity:1;stroke:#000000;stroke-width:3;stroke-miterlimit:4;stroke-dasharray:none;stroke-opacity:1"
       d="M 1.5,1.5 L 1.5,460.36794 C 1.5,626.67854 135.81454,761.5 301.49993,761.5 C 467.1854,761.5 601.5,626.67854 601.5,460.36794 L 601.5,1.5 L 1.5,1.5 z "
       id="path3239" />
  </g>
</svg>

<?xml version="1.0" encoding="UTF-8"?>
<svg version="1.0" viewBox="0 0 603 763" xmlns="http://www.w3.org/2000/svg" xmlns:cc="http://web.resource.org/cc/" xmlns:dc="http://purl.org/dc/elements/1.1/" xmlns:rdf="http://www.w3.org/1999/02/22-rdf-syntax-ns#" xmlns:xlink="http://www.w3.org/1999/xlink">
<metadata>
<rdf:RDF>
<cc:Work rdf:about="">
<dc:format>image/svg+xml</dc:format>
<dc:type rdf:resource="http://purl.org/dc/dcmitype/StillImage"/>
<dc:date>07-AUG-2006</dc:date>
<dc:creator>
<cc:Agent>
<dc:title>Jérôme BLUM (wagner51)</dc:title>
</cc:Agent>
</dc:creator>
<cc:license rdf:resource="http://creativecommons.org/licenses/GPL/2.0/"/>
<dc:coverage/>
<dc:description>Gabarit pour le Projet:Blasons de WIkipédia</dc:description>
<dc:subject>
<rdf:Bag>
<rdf:li>blason suisse modèle gabarit projet blasons</rdf:li>
</rdf:Bag>
</dc:subject>
<dc:language>fr</dc:language>
<dc:title>Gabrit d'un blason suisse</dc:title>
</cc:Work>
<cc:License rdf:about="http://creativecommons.org/licenses/GPL/2.0/">
<cc:permits rdf:resource="http://web.resource.org/cc/Reproduction"/>
<cc:permits rdf:resource="http://web.resource.org/cc/Distribution"/>
<cc:requires rdf:resource="http://web.resource.org/cc/Notice"/>
<cc:permits rdf:resource="http://web.resource.org/cc/DerivativeWorks"/>
<cc:requires rdf:resource="http://web.resource.org/cc/ShareAlike"/>
<cc:requires rdf:resource="http://web.resource.org/cc/SourceCode"/>
</cc:License>
</rdf:RDF>
</metadata>
<defs>
<radialGradient id="a" cx="858.04" cy="579.93" r="300" gradientTransform="matrix(1.215 1.5316e-24 1.4647e-23 1.2667 -839.19 -490.49)" gradientUnits="userSpaceOnUse">
<stop stop-color="#fff" stop-opacity=".31373" offset="0"/>
<stop stop-color="#fff" stop-opacity=".25098" offset=".19"/>
<stop stop-color="#6b6b6b" stop-opacity=".12549" offset=".6"/>
<stop stop-opacity=".12549" offset="1"/>
</radialGradient>
</defs>
<desc>Coat of Arms of Canton of Freiburg (Fribourg)</desc>
<path d="m1.5 1.5v458.87c0 166.31 134.31 301.13 300 301.13 165.69 0 300-134.82 300-301.13v-458.87h-600z" fill="#2b5df2"/>
<g stroke="#000">
<g transform="translate(4.7078)" fill-rule="evenodd" stroke-width="3.999px">
<path d="m334.92 545c-39.152-45.228-10.146-139.41-35.277-210.38 29.702 57.873 73.281 142.29 140.79 127.18 65.144-14.581 76.15-27.291 68.876-52.562 36.003-27.476-0.851-58.495-26.478-85.343-39.352-41.228-125.02-22.314-183.19 10.729 85.486-89.118 82.074-129.16 59.73-161.07-25.014-35.72-37.423-69.89-59.73-43.108-22.684-27.394-32.538-2.4678-55.017 32.204-40.564 62.565-29.148 102.25 55.017 171.97-79.815-29.258-133.91-60.976-191.3-0.6878-41.094 43.168-50.465 72.843-24.8 82.843-8.0276 31.041 20.801 45.177 95.388 46.498 54.615 0.95516 100.82-71.924 120.72-128.65-29.01 66.561-3.4823 165.59-44.704 210.38h79.98z" fill="#5ab532"/>
<path d="m299.64 131.55 1.406 205.22 207.32 70.5-206.18-67.014-216.15 76.441 211.02-79.519 2.5883-205.62z"/>
</g>
<path transform="matrix(3.1544 .05482 -.05482 3.1544 -1611.7 -1790.5)" d="m707.74 590.1-24.07 18.465 8.9494 28.986-24.999-17.186-24.802 17.469 8.6196-29.086-24.278-18.19 30.326-0.79032 9.7974-28.711 10.123 28.598 30.333 0.44582z" fill="#fff"/>
<path transform="matrix(3.1544 .05482 -.05482 3.1544 -1934.4 -1790.5)" d="m707.74 590.1-24.07 18.465 8.9494 28.986-24.999-17.186-24.802 17.469 8.6196-29.086-24.278-18.19 30.326-0.79032 9.7974-28.711 10.123 28.598 30.333 0.44582z" fill="#fff"/>
<g stroke-width="3">
<path d="m298.94 533.75c-0.87047-0.00734-1.7387 0.01464-2.5938 0.03125-53.014 1.0294-87.052 34.437-96.719 57.469-1e-5 2e-5 -77.263-61.642-140.41 5-6.0159 6.3492-10.884 12.858-14.75 19.5 51.942 86.412 145.89 144.49 253.47 145.75 0.97946 0.00387 1.9552 0 2.9375 0 1.8268-1e-5 3.6439-0.01429 5.4688-0.03125 0.96427-0.00896 1.9428-0.01756 2.9062-0.03125 0.02089-5.3e-4 0.04162 5.4e-4 0.0625 0 105.38-2.7017 197.25-59.94 248.62-144.66-3.9504-6.9953-9.0146-13.851-15.344-20.531-63.139-66.642-140.44-5-140.44-5-14.634-24.293-44.159-56.253-100.59-57.438-0.88179-0.01851-1.7545-0.05516-2.625-0.0625z" fill="#5ab532"/>
<path d="m297.8 761.5c-41.301-9.2901-122.53-88.931-97.033-172.77" fill="none" stroke-linecap="round" stroke-linejoin="round"/>
<path d="m303.91 761.5c41.301-9.2901 122.53-88.931 97.033-172.77" fill="none" stroke-linecap="round" stroke-linejoin="round"/>
</g>
</g>
<g>
<path d="m1.5 1.5v458.87c0 166.31 134.31 301.13 300 301.13 165.69 0 300-134.82 300-301.13v-458.87h-600z" fill="url(#a)"/>
<path d="m1.5 1.5v458.87c0 166.31 134.31 301.13 300 301.13 165.69 0 300-134.82 300-301.13v-458.87h-600z" fill="none" stroke="#000" stroke-width="3"/>
</g>
</svg>
